products/org.csstudio.iter.css.product/SymbolLibrary_quad_hd/SVG/Electrical/Starters/GS Auto-Transformer.svg

<?xml version="1.0" encoding="UTF-8"?>
<!--
/*******************************************************************************
* Copyright (c) 2010-2016 ITER Organization.
* All rights reserved. This program and the accompanying materials
* are made available under the terms of the Eclipse Public License v1.0
* which accompanies this distribution, and is available at
* http://www.eclipse.org/legal/epl-v10.html
******************************************************************************/
-->
<svg xmlns="http://www.w3.org/2000/svg" xmlns:xlink="http://www.w3.org/1999/xlink" width="68pt" height="131pt" viewBox="0 0 68 131" version="1.1">
<g id="surface1">
<path style=" stroke:none;fill-rule:evenodd;fill:rgb(100%,100%,100%);fill-opacity:1;" d="M 1.898438 1.355469 L 1.9375 1.355469 L 1.9375 1.433594 L 1.898438 1.433594 Z "/>
<path style=" stroke:none;fill-rule:evenodd;fill:rgb(100%,100%,100%);fill-opacity:1;" d="M 66.109375 129.324219 L 66.148438 129.324219 L 66.148438 129.402344 L 66.109375 129.402344 Z "/>
<path style="fill-rule:evenodd;fill:rgb(100%,100%,100%);fill-opacity:1;stroke-width:0.999999;stroke-linecap:round;stroke-linejoin:round;stroke:rgb(0%,0%,0%);stroke-opacity:1;stroke-miterlimit:3;" d="M 0.000921674 35.455782 L 34.01568 35.455782 L 34.01568 69.47134 L 0.000921674 69.47134 Z " transform="matrix(1.888886,0,0,1.882181,1.888884,-33.367011)"/>
<path style="fill:none;stroke-width:0.999999;stroke-linecap:round;stroke-linejoin:round;stroke:rgb(0%,0%,0%);stroke-opacity:1;stroke-miterlimit:3;" d="M 34.019816 60.960882 L 17.010369 69.46996 L 0.000921674 60.960882 " transform="matrix(1.888886,0,0,1.882181,1.888884,-81.372225)"/>
<path style="fill-rule:evenodd;fill:rgb(100%,100%,100%);fill-opacity:1;stroke-width:0.999999;stroke-linecap:round;stroke-linejoin:round;stroke:rgb(0%,0%,0%);stroke-opacity:1;stroke-miterlimit:3;" d="M 8.503616 65.219925 C 8.503616 62.870589 6.601039 60.967461 4.251771 60.967461 C 1.904571 60.967461 -0.0000739363 62.870589 -0.0000739363 65.219925 C -0.0000739363 67.567185 1.904571 69.472389 4.251771 69.472389 C 6.601039 69.472389 8.503616 67.567185 8.503616 65.219925 Z " transform="matrix(1.888886,0,0,1.882181,24.644671,-49.37289)"/>
<path style="fill:none;stroke-width:0.999999;stroke-linecap:round;stroke-linejoin:round;stroke:rgb(0%,0%,0%);stroke-opacity:1;stroke-miterlimit:3;" d="M 0.000122112 69.47031 L 7.089288 69.47031 " transform="matrix(-1.888886,0.00000000000000023,-0.000000000000000231,-1.882181,23.734606,204.79476)"/>
<path style="fill:none;stroke-width:0.999999;stroke-linecap:round;stroke-linejoin:round;stroke:rgb(0%,0%,0%);stroke-opacity:1;stroke-miterlimit:3;" d="M -0.000959238 69.470493 C 4.701714 70.091033 8.957694 68.466007 11.060869 65.24916 L 15.66014 65.209728 " transform="matrix(1.888886,0,0,1.882181,31.337749,-49.627135)"/>
</g>
</svg>

<?xml version="1.0" encoding="UTF-8" standalone="no"?>
<!--
/*******************************************************************************
* Copyright (c) 2010-2016 ITER Organization.
* All rights reserved. This program and the accompanying materials
* are made available under the terms of the Eclipse Public License v1.0
* which accompanies this distribution, and is available at
* http://www.eclipse.org/legal/epl-v10.html
******************************************************************************/
-->
<!--
/*******************************************************************************
* Copyright (c) 2010-2016 ITER Organization.
* All rights reserved. This program and the accompanying materials
* are made available under the terms of the Eclipse Public License v1.0
* which accompanies this distribution, and is available at
* http://www.eclipse.org/legal/epl-v10.html
******************************************************************************/
-->

<svg
   xmlns:dc="http://purl.org/dc/elements/1.1/"
   xmlns:cc="http://creativecommons.org/ns#"
   xmlns:rdf="http://www.w3.org/1999/02/22-rdf-syntax-ns#"
   xmlns:svg="http://www.w3.org/2000/svg"
   xmlns="http://www.w3.org/2000/svg"
   xmlns:sodipodi="http://sodipodi.sourceforge.net/DTD/sodipodi-0.dtd"
   xmlns:inkscape="http://www.inkscape.org/namespaces/inkscape"
   width="85.770775pt"
   height="128.04688pt"
   viewBox="0 0 85.770775 128.04688"
   version="1.1"
   id="svg2"
   inkscape:version="0.91 r13725"
   sodipodi:docname="OL_EE0406.svg">
  <metadata
     id="metadata23">
    <rdf:RDF>
      <cc:Work
         rdf:about="">
        <dc:format>image/svg+xml</dc:format>
        <dc:type
           rdf:resource="http://purl.org/dc/dcmitype/StillImage" />
        <dc:title></dc:title>
      </cc:Work>
    </rdf:RDF>
  </metadata>
  <defs
     id="defs21" />
  <sodipodi:namedview
     pagecolor="#ffffff"
     bordercolor="#666666"
     borderopacity="1"
     objecttolerance="10"
     gridtolerance="10"
     guidetolerance="10"
     inkscape:pageopacity="0"
     inkscape:pageshadow="2"
     inkscape:window-width="1366"
     inkscape:window-height="706"
     id="namedview19"
     showgrid="false"
     fit-margin-left="9.8"
     fit-margin-right="9.8"
     fit-margin-top="0"
     fit-margin-bottom="0"
     inkscape:zoom="1.4412214"
     inkscape:cx="53.582321"
     inkscape:cy="79.87793"
     inkscape:window-x="-8"
     inkscape:window-y="-8"
     inkscape:window-maximized="1"
     inkscape:current-layer="svg2" />
  <g
     id="surface1"
     transform="translate(8.865857,-1.355469)">
    <path
       style="fill:#ffffff;fill-opacity:1;fill-rule:evenodd;stroke:none"
       d="m 1.898438,1.355469 0.039062,0 0,0.078125 -0.039062,0 z"
       id="path5"
       inkscape:connector-curvature="0" />
    <path
       style="fill:#ffffff;fill-opacity:1;fill-rule:evenodd;stroke:none"
       d="m 66.109375,129.32422 0.03906,0 0,0.0781 -0.03906,0 z"
       id="path7"
       inkscape:connector-curvature="0" />
    <path
       style="fill:#ffffff;fill-opacity:1;fill-rule:evenodd;stroke:#000000;stroke-width:0.99999899;stroke-linecap:round;stroke-linejoin:round;stroke-miterlimit:3;stroke-opacity:1"
       d="m 9.21674e-4,35.455782 34.014758326,0 0,34.015558 -34.014758326,0 z"
       transform="matrix(1.888886,0,0,1.882181,1.888884,-33.367011)"
       id="path9"
       inkscape:connector-curvature="0" />
    <path
       style="fill:none;stroke:#000000;stroke-width:0.99999899;stroke-linecap:round;stroke-linejoin:round;stroke-miterlimit:3;stroke-opacity:1"
       d="M 34.019816,60.960882 17.010369,69.46996 9.21674e-4,60.960882"
       transform="matrix(1.888886,0,0,1.882181,1.888884,-81.372225)"
       id="path11"
       inkscape:connector-curvature="0" />
    <path
       style="fill:#ffffff;fill-opacity:1;fill-rule:evenodd;stroke:#000000;stroke-width:0.99999899;stroke-linecap:round;stroke-linejoin:round;stroke-miterlimit:3;stroke-opacity:1"
       d="m 8.503616,65.219925 c 0,-2.349336 -1.902577,-4.252464 -4.251845,-4.252464 -2.3472,0 -4.2518449363,1.903128 -4.2518449363,4.252464 0,2.34726 1.9046449363,4.252464 4.2518449363,4.252464 2.349268,0 4.251845,-1.905204 4.251845,-4.252464 z"
       transform="matrix(1.888886,0,0,1.882181,24.644671,-49.37289)"
       id="path13"
       inkscape:connector-curvature="0" />
    <path
       style="fill:none;stroke:#000000;stroke-width:0.99999899;stroke-linecap:round;stroke-linejoin:round;stroke-miterlimit:3;stroke-opacity:1"
       d="m 1.22112e-4,69.47031 7.089165888,0"
       transform="matrix(-1.888886,0,0,-1.882181,23.734606,204.79476)"
       id="path15"
       inkscape:connector-curvature="0" />
    <path
       style="fill:none;stroke:#000000;stroke-width:0.99999899;stroke-linecap:round;stroke-linejoin:round;stroke-miterlimit:3;stroke-opacity:1"
       d="M -9.59238e-4,69.470493 C 4.701714,70.091033 8.957694,68.466007 11.060869,65.24916 l 4.599271,-0.03943"
       transform="matrix(1.888886,0,0,1.882181,31.337749,-49.627135)"
       id="path17"
       inkscape:connector-curvature="0" />
  </g>
</svg>
